img/real-estate/locations/field.svg

<svg xmlns="http://www.w3.org/2000/svg" width="80" height="80" fill="none" xmlns:v="https://vecta.io/nano"><path fill="#07c98b" fill-opacity=".1" d="M0 0h80v80H0z"/><g clip-path="url(#A)" fill="#07c98b"><path d="M63.0596 53.5898c-7.8296 0-15.5141 3.2117-21.0835 8.8114-.3654.3674-.3636.961.0033 1.3257.1831.182.4219.2729.6614.2729s.4812-.092.6647-.2762c5.22-5.2485 12.42-8.2588 19.7541-8.2588.5179 0 .9375-.4196.9375-.9375s-.4196-.9375-.9375-.9375h0zm-19.547-.8683c-.2901-.4292-.8727-.542-1.3015-.252-4.0089 2.7078-7.3946 6.0959-10.0635 10.0701-.2886.4299-.1743 1.0125.2556 1.3011.1608.1077.342.1593.5218.1593.3018 0 .5984-.1457.7793-.4149 2.5335-3.7731 5.7485-6.9902 9.5563-9.5621.4289-.2897.5417-.8723.252-1.3015zm19.5517-6.6785c-4.1913 0-8.3397.7159-12.33 2.128-.4881.1725-.7437.7083-.5709 1.1964.1359.3849.4977.6252.8837.6252.1036 0 .2091-.0176.3127-.0542 3.7888-1.3407 7.7267-2.0204 11.7045-2.0204.5178 0 .9375-.4197.9375-.9375s-.4197-.9375-.9375-.9375h0zm-33.632 11.5237C35.6 49.5251 44.5282 43.9414 54.38 41.8489c.0018-.0004.0037-.0007.0051-.0011 2.8312-.6009 5.7378-.9141 8.6774-.9141.5175 0 .9375-.42.9375-.9375s-.42-.9375-.9375-.9375c-2.6656 0-5.321.2439-7.9314.7211v-2.0237c3.3886-2.8685 5.2485-6.6273 5.2485-10.63 0-4.1385-1.9881-8.0163-5.5986-10.9193-.3431-.2757-.832-.2757-1.1752 0-3.6101 2.903-5.5986 6.7808-5.5986 10.9193 0 4.0027 1.8604 7.7615 5.2485 10.63v2.4071c-1.7812.4054-3.5368.9222-5.2558 1.5444v-5.4892c0-.2578-.104-.4911-.2725-.6606v-.0004l-5.25-5.2811c-.1761-.1769-.4153-.2765-.665-.2765H31.0938c-.2494 0-.4889.0996-.6647.2765l-5.25 5.2811v.0004c-.1685.1695-.2729.4028-.2729.661v3.5801c-.6533-.1198-1.3095-.2253-1.9687-.3153v-3.3421c2.5624-2.2042 3.9683-5.079 3.9683-8.1416 0-3.1996-1.5337-6.1944-4.3184-8.4338-.3431-.2758-.8317-.2758-1.1748 0-2.7847 2.239-4.3184 5.2342-4.3184 8.4338 0 3.0623 1.4059 5.937 3.9683 8.1412v3.1268c-1.3671-.1279-2.7433-.1938-4.125-.1938-.5178 0-.9375.4197-.9375.9375s.4197.9375.9375.9375c7.4963 0 14.8286 1.9834 21.2926 5.7462-1.5487 1.0525-3.0278 2.2021-4.4282 3.4395-5.2372-2.6682-11.0563-4.0763-16.8644-4.0763-.5175 0-.9375.4197-.9375.9375s.42.9375.9375.9375c5.2848 0 10.5802 1.229 15.3911 3.5629-1.4253 1.3788-2.7576 2.8539-3.9869 4.4132-3.6468-1.5293-7.4795-2.3042-11.4042-2.3042-.5175 0-.9375.4197-.9375.9375s.42.9375.9375.9375c3.5156 0 6.9529.6665 10.2363 1.979-.6478.9001-1.2634 1.8248-1.8424 2.774l-1.4286 2.3405c-.2699.4416-.13 1.0188.3117 1.2883.1527.0934.3211.1377.4878.1377.3156 0 .6244-.16.8009-.4493l1.4286-2.3405c.7448-1.2206 1.5498-2.395 2.4078-3.5226.0337-.0373.0652-.0772.0927-.1208h0zm20.4503-30.4406c0-3.3321 1.5245-6.4885 4.311-8.9619 2.7865 2.4734 4.311 5.6298 4.311 8.9619 0 2.9363-1.185 5.7367-3.3735 8.053v-7.1792c0-.5178-.4197-.9375-.9375-.9375s-.9375.4197-.9375.9375v7.1792c-2.1888-2.3163-3.3735-5.1167-3.3735-8.053zm-30.9134.8738c0-2.3913 1.0705-4.6626 3.0308-6.4673 1.9603 1.8043 3.0308 4.076 3.0308 6.4673 0 1.9764-.7321 3.8712-2.0933 5.4884v-6.2384c0-.5178-.4197-.9375-.9375-.9375s-.9375.4197-.9375.9375v6.2384c-1.3612-1.6172-2.0933-3.512-2.0933-5.4884zm25.8395 7.281h-8.0749l-3.386-3.4061h8.0749l3.386 3.4061zM31.0938 32.267l2.9963 3.0139h-5.9923l2.996-3.0139zm-4.3126 4.8889h8.625v5.9619c-.4346-.1999-.8719-.3933-1.3124-.579v-3.1486c0-.5175-.4197-.9375-.9376-.9375h-4.125c-.5174 0-.9374.42-.9374.9375v1.1147l-1.3126-.3215v-3.0275zm5.4376 4.6432c-.7435-.2739-1.4935-.5281-2.25-.7613v-.7101h2.25v1.4714zm5.0624 2.2361v-6.8793h8.844v5.2793c-1.6058.6654-3.175 1.4249-4.6962 2.2789-.4864.2729-.9668.5563-1.4418.8471-.8862-.5413-1.7886-1.0503-2.706-1.526h0zM54.1953 25.375c.2465 0 .4885-.1003.6629-.275s.2746-.416.2746-.6625-.1-.4885-.2746-.6628-.4164-.2747-.6629-.2747-.4885.1-.6625.2747-.275.416-.275.6628.1004.4882.275.6625.4161.275.6625.275zm-8.1394 24.8688c-.1739.1743-.2747.416-.2747.6624s.1004.4886.2747.6629.4164.2747.6629.2747.4885-.1.6628-.2747.2746-.4153.2746-.6629-.1003-.4881-.2746-.6624-.416-.275-.6628-.275-.4882.1003-.6629.275z"/></g><defs><clipPath id="A"><path fill="#fff" transform="translate(16 16)" d="M0 0h48v48H0z"/></clipPath></defs></svg>

<svg width="80" height="80" viewBox="0 0 80 80" fill="none" xmlns="http://www.w3.org/2000/svg">
<g clip-path="url(#clip0_126_2685)">
<path d="M0 0H80V80H0V0Z" fill="#A237EE" fill-opacity="0.1"/>
<mask id="mask0_126_2685" style="mask-type:luminance" maskUnits="userSpaceOnUse" x="16" y="16" width="48" height="48">
<path d="M16 16H64V64H16V16Z" fill="white"/>
</mask>
<g mask="url(#mask0_126_2685)">
<path d="M63.0596 53.5898C55.23 53.5898 47.5455 56.8015 41.9761 62.4012C41.6107 62.7686 41.6125 63.3622 41.9794 63.7269C42.1625 63.9089 42.4013 63.9998 42.6408 63.9998C42.8803 63.9998 43.122 63.9078 43.3055 63.7236C48.5255 58.4751 55.7255 55.4648 63.0596 55.4648C63.5775 55.4648 63.9971 55.0452 63.9971 54.5273C63.9971 54.0094 63.5775 53.5898 63.0596 53.5898ZM43.5126 52.7215C43.2225 52.2923 42.6399 52.1795 42.2111 52.4695C38.2022 55.1773 34.8165 58.5654 32.1476 62.5396C31.859 62.9695 31.9733 63.5521 32.4032 63.8407C32.564 63.9484 32.7452 64 32.925 64C33.2268 64 33.5234 63.8543 33.7043 63.5851C36.2378 59.812 39.4528 56.5949 43.2606 54.023C43.6895 53.7333 43.8023 53.1507 43.5126 52.7215ZM63.0643 46.043C58.873 46.043 54.7246 46.7589 50.7343 48.171C50.2462 48.3435 49.9906 48.8793 50.1634 49.3674C50.2993 49.7523 50.6611 49.9926 51.0471 49.9926C51.1507 49.9926 51.2562 49.975 51.3598 49.9384C55.1486 48.5977 59.0865 47.918 63.0643 47.918C63.5821 47.918 64.0018 47.4983 64.0018 46.9805C64.0018 46.4627 63.5821 46.043 63.0643 46.043ZM29.4323 57.5667C35.6 49.5251 44.5282 43.9414 54.38 41.8489C54.3818 41.8485 54.3837 41.8482 54.3851 41.8478C57.2163 41.2469 60.1229 40.9337 63.0625 40.9337C63.58 40.9337 64 40.5137 64 39.9962C64 39.4787 63.58 39.0587 63.0625 39.0587C60.3969 39.0587 57.7415 39.3026 55.1311 39.7798V37.7561C58.5197 34.8876 60.3796 31.1288 60.3796 27.1261C60.3796 22.9876 58.3915 19.1098 54.781 16.2068C54.4379 15.9311 53.949 15.9311 53.6058 16.2068C49.9957 19.1098 48.0072 22.9876 48.0072 27.1261C48.0072 31.1288 49.8676 34.8876 53.2557 37.7561V40.1632C51.4745 40.5686 49.7189 41.0854 47.9999 41.7076V36.2184C47.9999 35.9606 47.8959 35.7273 47.7274 35.5578L42.4774 30.2763C42.3013 30.0994 42.0621 29.9998 41.8124 29.9998H31.0938C30.8444 29.9998 30.6049 30.0994 30.4291 30.2763L25.1791 35.5574C25.0106 35.7269 24.9062 35.9606 24.9062 36.2188V39.7989C24.2529 39.6791 23.5967 39.5736 22.9375 39.4836V36.1415C25.4999 33.9373 26.9058 31.0625 26.9058 27.9999C26.9058 24.8003 25.3721 21.8055 22.5874 19.5661C22.2443 19.2903 21.7557 19.2903 21.4126 19.5661C18.6279 21.8051 17.0942 24.8003 17.0942 27.9999C17.0942 31.0622 18.5001 33.9369 21.0625 36.1411V39.2679C19.6954 39.14 18.3192 39.0741 16.9375 39.0741C16.4197 39.0741 16 39.4938 16 40.0116C16 40.5294 16.4197 40.9491 16.9375 40.9491C24.4338 40.9491 31.7661 42.9325 38.2301 46.6953C36.6814 47.7478 35.2023 48.8974 33.8019 50.1348C28.5647 47.4666 22.7456 46.0585 16.9375 46.0585C16.42 46.0585 16 46.4782 16 46.996C16 47.5138 16.42 47.9335 16.9375 47.9335C22.2223 47.9335 27.5177 49.1625 32.3286 51.4964C30.9033 52.8752 29.571 54.3503 28.3417 55.9096C24.6949 54.3803 20.8622 53.6054 16.9375 53.6054C16.42 53.6054 16 54.0251 16 54.5429C16 55.0607 16.42 55.4804 16.9375 55.4804C20.4531 55.4804 23.8904 56.1469 27.1738 57.4594C26.526 58.3595 25.9104 59.2842 25.3314 60.2334L23.9028 62.5739C23.6329 63.0155 23.7728 63.5927 24.2145 63.8622C24.3672 63.9556 24.5356 63.9999 24.7023 63.9999C25.0179 63.9999 25.3267 63.8399 25.5032 63.5506L26.9318 61.2101C27.6766 59.9895 28.4816 58.8151 29.3396 57.6875C29.3733 57.6502 29.4048 57.6103 29.4323 57.5667ZM49.8826 27.1261C49.8826 23.794 51.4071 20.6376 54.1936 18.1642C56.9801 20.6376 58.5046 23.794 58.5046 27.1261C58.5046 30.0624 57.3196 32.8628 55.1311 35.1791V27.9999C55.1311 27.4821 54.7114 27.0624 54.1936 27.0624C53.6758 27.0624 53.2561 27.4821 53.2561 27.9999V35.1791C51.0673 32.8628 49.8826 30.0624 49.8826 27.1261ZM18.9692 27.9999C18.9692 25.6086 20.0397 23.3373 22 21.5326C23.9603 23.3369 25.0308 25.6086 25.0308 27.9999C25.0308 29.9763 24.2987 31.8711 22.9375 33.4883V27.2499C22.9375 26.7321 22.5178 26.3124 22 26.3124C21.4822 26.3124 21.0625 26.7321 21.0625 27.2499V33.4883C19.7013 31.8711 18.9692 29.9763 18.9692 27.9999ZM44.8087 35.2809H36.7338L33.3478 31.8748H41.4227L44.8087 35.2809ZM31.0938 32.267L34.0901 35.2809H28.0978L31.0938 32.267ZM26.7812 37.1559H35.4062V43.1178C34.9716 42.9179 34.5343 42.7245 34.0938 42.5388V39.3902C34.0938 38.8727 33.6741 38.4527 33.1562 38.4527H29.0312C28.5138 38.4527 28.0938 38.8727 28.0938 39.3902V40.5049L26.7812 40.1834V37.1559ZM32.2188 41.7991C31.4753 41.5252 30.7253 41.271 29.9688 41.0378V40.3277H32.2188V41.7991ZM37.2812 44.0352V37.1559H46.1252V42.4352C44.5194 43.1006 42.9502 43.8601 41.429 44.7141C40.9426 44.987 40.4622 45.2704 39.9872 45.5612C39.101 45.0199 38.1986 44.5109 37.2812 44.0352ZM54.1953 25.375C54.4418 25.375 54.6838 25.2747 54.8582 25.1C55.0326 24.9253 55.1328 24.684 55.1328 24.4375C55.1328 24.191 55.0328 23.949 54.8582 23.7747C54.6836 23.6004 54.4418 23.5 54.1953 23.5C53.9488 23.5 53.7068 23.6 53.5328 23.7747C53.3588 23.9494 53.2578 24.1907 53.2578 24.4375C53.2578 24.6843 53.3582 24.9257 53.5328 25.1C53.7074 25.2743 53.9489 25.375 54.1953 25.375ZM46.0559 50.2438C45.882 50.4181 45.7812 50.6598 45.7812 50.9062C45.7812 51.1526 45.8816 51.3948 46.0559 51.5691C46.2302 51.7434 46.4723 51.8438 46.7188 51.8438C46.9653 51.8438 47.2073 51.7438 47.3816 51.5691C47.5559 51.3944 47.6562 51.1538 47.6562 50.9062C47.6562 50.6586 47.5559 50.4181 47.3816 50.2438C47.2073 50.0695 46.9656 49.9688 46.7188 49.9688C46.472 49.9688 46.2306 50.0691 46.0559 50.2438Z" fill="#A237EE"/>
</g>
</g>
<defs>
<clipPath id="clip0_126_2685">
<rect width="80" height="80" fill="white"/>
</clipPath>
</defs>
</svg>
